Sources/FrostedUI/Resources/Icons.xcassets/merch20.imageset/merch-20.svg

<svg width="20" height="20" viewBox="0 0 20 20" fill="none" xmlns="http://www.w3.org/2000/svg" data-fui-icon="true">
  <path
    d="M9.9908 4.68375C7.481 4.68375 7.17678 2.25 7.17678 2.25L1.16181 4.99064C0.800467 5.15528 0.648283 5.5872 0.826611 5.942L2.143 8.56102C2.29757 8.86855 2.65277 9.01808 2.98074 8.91369L4.24642 8.51086V17.125C4.24642 17.4702 4.52624 17.75 4.87142 17.75H15.125C15.4702 17.75 15.75 17.4702 15.75 17.125V8.51086L17.0195 8.91411C17.3474 9.01827 17.7023 8.86872 17.8568 8.56133L19.1731 5.94267C19.3515 5.58762 19.199 5.1554 18.8372 4.99101L12.8048 2.25C12.8048 2.25 12.5006 4.68375 9.9908 4.68375Z"
    stroke="currentColor"
    stroke-width="1.5"
    stroke-linecap="round"
    stroke-linejoin="round"
  />
</svg>

<svg xmlns="http://www.w3.org/2000/svg" width="20" height="20" fill="none" data-fui-icon="true" viewBox="0 0 20 20"><path stroke="currentColor" stroke-linecap="round" stroke-linejoin="round" stroke-width="1.5" d="M9.99 4.684c-2.509 0-2.813-2.434-2.813-2.434L1.162 4.99a.7.7 0 0 0-.335.952l1.316 2.619a.7.7 0 0 0 .838.353l1.265-.403v8.614c0 .345.28.625.625.625h10.254c.345 0 .625-.28.625-.625V8.511l1.27.403a.7.7 0 0 0 .837-.353l1.316-2.618a.7.7 0 0 0-.336-.952L12.805 2.25S12.5 4.684 9.99 4.684"/></svg>
